dist/img/footer/icons/instagram.svg

<svg width="50" height="51" viewBox="0 0 50 51" fill="none" xmlns="http://www.w3.org/2000/svg">
<path d="M24.9997 0.5C11.1787 0.5 0 11.6789 0 25.5C0 39.3211 11.1787 50.5 24.9997 50.5C38.8206 50.5 49.9993 39.3211 49.9993 25.5C50.1009 11.6789 38.8206 0.5 24.9997 0.5ZM38.3125 31.3943C38.3125 33.7317 37.4995 35.7642 36.0767 37.187C34.654 38.6098 32.6215 39.3211 30.3858 39.3211H19.3087C17.0729 39.3211 15.0404 38.6098 13.6177 37.187C12.0933 35.7642 11.382 33.7317 11.382 31.3943V20.2154C11.382 15.5407 14.5323 12.2886 19.3087 12.2886H30.4874C32.8248 12.2886 34.7556 13.1016 36.1784 14.5244C37.6011 15.9472 38.3125 17.878 38.3125 20.2154V31.3943Z" fill="white"/>
<path d="M24.7964 30.1748C27.266 30.1748 29.2679 28.1728 29.2679 25.7032C29.2679 23.2337 27.266 21.2317 24.7964 21.2317C22.3269 21.2317 20.325 23.2337 20.325 25.7032C20.325 28.1728 22.3269 30.1748 24.7964 30.1748Z" fill="white"/>
<path d="M30.3857 14.7275H19.207C17.581 14.7275 16.1583 15.2357 15.2437 16.1503C14.329 17.0649 13.8209 18.4877 13.8209 20.1137V31.2926C13.8209 32.9186 14.329 34.3414 15.3453 35.3576C16.3615 36.2723 17.6827 36.7804 19.3087 36.7804H30.3857C32.0117 36.7804 33.4345 36.2723 34.3491 35.3576C35.3653 34.443 35.8735 33.0202 35.8735 31.3942V20.2153C35.8735 18.5893 35.3653 17.2682 34.4507 16.2519C33.4345 15.2357 32.1134 14.7275 30.3857 14.7275ZM24.7964 32.6137C20.9346 32.6137 17.8859 29.4633 17.8859 25.7031C17.8859 21.8414 21.0363 18.7926 24.7964 18.7926C28.5565 18.7926 31.8085 21.8414 31.8085 25.7031C31.8085 29.5649 28.6581 32.6137 24.7964 32.6137ZM32.0117 20.1137C31.0971 20.1137 30.3857 19.4023 30.3857 18.4877C30.3857 17.5731 31.0971 16.8617 32.0117 16.8617C32.9264 16.8617 33.6377 17.5731 33.6377 18.4877C33.6377 19.4023 32.9264 20.1137 32.0117 20.1137Z" fill="white"/>
</svg>

<svg width="50" height="51" fill="none" xmlns="http://www.w3.org/2000/svg"><path d="M25 .5C11.179.5 0 11.679 0 25.5s11.179 25 25 25c13.82 0 25-11.179 25-25 .1-13.821-11.18-25-25-25Zm13.313 30.894c0 2.338-.814 4.37-2.236 5.793-1.423 1.423-3.456 2.134-5.691 2.134H19.309c-2.236 0-4.269-.711-5.691-2.134-1.525-1.423-2.236-3.455-2.236-5.793V20.215c0-4.674 3.15-7.926 7.927-7.926h11.178c2.338 0 4.269.813 5.691 2.235 1.423 1.423 2.135 3.354 2.135 5.691v11.18Z" fill="#fff"/><path d="M24.796 30.175a4.472 4.472 0 1 0 0-8.943 4.472 4.472 0 0 0 0 8.943Z" fill="#fff"/><path d="M30.386 14.727H19.207c-1.626 0-3.049.509-3.963 1.423-.915.915-1.423 2.338-1.423 3.964v11.179c0 1.626.508 3.048 1.524 4.065 1.016.914 2.338 1.422 3.964 1.422h11.077c1.626 0 3.049-.508 3.963-1.422 1.016-.915 1.525-2.338 1.525-3.964V20.215c0-1.626-.509-2.947-1.423-3.963-1.017-1.016-2.338-1.524-4.065-1.524Zm-5.59 17.887c-3.861 0-6.91-3.15-6.91-6.91 0-3.863 3.15-6.911 6.91-6.911 3.76 0 7.012 3.048 7.012 6.91s-3.15 6.91-7.012 6.91Zm7.216-12.5a1.605 1.605 0 0 1-1.626-1.626c0-.915.711-1.626 1.626-1.626.914 0 1.626.711 1.626 1.626 0 .914-.712 1.626-1.626 1.626Z" fill="#fff"/></svg>
